; G-Code generated by Simplify3D(R) Version 4.1.2
; Jun 30, 2021 at 1:38:40 PM
; Settings Summary
;   processName,Process1
;   applyToModels,Peg_MEDIUM,Peg_SMALL,PEG_LARGE,Peg_MEDIUM(2),Peg_SMALL(2),PEG_LARGE(2),Peg_MEDIUM(3),Peg_SMALL(3),PEG_LARGE(3),Peg_MEDIUM(4),Peg_SMALL(4),PEG_LARGE(4),Peg_MEDIUM(5),Peg_SMALL(5),PEG_LARGE(5),Peg_MEDIUM(6),Peg_SMALL(6),PEG_LARGE(6)
;   profileName,Chris Elkins CR-10 (modified)
;   profileVersion,2017-09-03 13:44:15
;   baseProfile,Creality CR-10(2)
;   printMaterial,PLA
;   printQuality,Medium
;   printExtruders,
;   extruderName,Primary Extruder
;   extruderToolheadNumber,0
;   extruderDiameter,0.4
;   extruderAutoWidth,0
;   extruderWidth,0.4
;   extrusionMultiplier,0.96
;   extruderUseRetract,1
;   extruderRetractionDistance,6.5
;   extruderExtraRestartDistance,-0.1
;   extruderRetractionZLift,0
;   extruderRetractionSpeed,5100
;   extruderUseCoasting,1
;   extruderCoastingDistance,0.2
;   extruderUseWipe,1
;   extruderWipeDistance,4
;   primaryExtruder,0
;   layerHeight,0.2
;   topSolidLayers,3
;   bottomSolidLayers,3
;   perimeterOutlines,2
;   printPerimetersInsideOut,1
;   startPointOption,3
;   startPointOriginX,0
;   startPointOriginY,500
;   sequentialIslands,0
;   spiralVaseMode,0
;   firstLayerHeightPercentage,120
;   firstLayerWidthPercentage,120
;   firstLayerUnderspeed,0.5
;   useRaft,0
;   raftExtruder,0
;   raftTopLayers,3
;   raftBaseLayers,2
;   raftOffset,3
;   raftSeparationDistance,0.14
;   raftTopInfill,100
;   aboveRaftSpeedMultiplier,0.3
;   useSkirt,0
;   skirtExtruder,0
;   skirtLayers,1
;   skirtOutlines,2
;   skirtOffset,6
;   usePrimePillar,0
;   primePillarExtruder,999
;   primePillarWidth,12
;   primePillarLocation,7
;   primePillarSpeedMultiplier,1
;   useOozeShield,0
;   oozeShieldExtruder,999
;   oozeShieldOffset,2
;   oozeShieldOutlines,1
;   oozeShieldSidewallShape,1
;   oozeShieldSidewallAngle,30
;   oozeShieldSpeedMultiplier,1
;   infillExtruder,0
;   internalInfillPattern,Rectilinear
;   externalInfillPattern,Rectilinear
;   infillPercentage,5
;   outlineOverlapPercentage,15
;   infillExtrusionWidthPercentage,100
;   minInfillLength,5
;   infillLayerInterval,1
;   internalInfillAngles,45,-45
;   overlapInternalInfillAngles,0
;   externalInfillAngles,45,-45
;   generateSupport,0
;   supportExtruder,0
;   supportInfillPercentage,30
;   supportExtraInflation,0
;   supportBaseLayers,0
;   denseSupportExtruder,0
;   denseSupportLayers,0
;   denseSupportInfillPercentage,70
;   supportLayerInterval,1
;   supportHorizontalPartOffset,0.4
;   supportUpperSeparationLayers,1
;   supportLowerSeparationLayers,1
;   supportType,0
;   supportGridSpacing,4.5
;   maxOverhangAngle,45
;   supportAngles,0
;   temperatureName,Primary Extruder,Heated Bed
;   temperatureNumber,0,0
;   temperatureSetpointCount,1,1
;   temperatureSetpointLayers,1,1
;   temperatureSetpointTemperatures,210,60
;   temperatureStabilizeAtStartup,1,1
;   temperatureHeatedBed,0,1
;   fanLayers,1,2,5
;   fanSpeeds,0,90,100
;   blipFanToFullPower,1
;   adjustSpeedForCooling,1
;   minSpeedLayerTime,15
;   minCoolingSpeedSlowdown,20
;   increaseFanForCooling,0
;   minFanLayerTime,45
;   maxCoolingFanSpeed,100
;   increaseFanForBridging,1
;   bridgingFanSpeed,100
;   use5D,1
;   relativeEdistances,0
;   allowEaxisZeroing,1
;   independentExtruderAxes,0
;   includeM10123,0
;   stickySupport,1
;   applyToolheadOffsets,0
;   gcodeXoffset,0
;   gcodeYoffset,0
;   gcodeZoffset,0
;   overrideMachineDefinition,1
;   machineTypeOverride,0
;   strokeXoverride,300
;   strokeYoverride,300
;   strokeZoverride,400
;   originOffsetXoverride,0
;   originOffsetYoverride,0
;   originOffsetZoverride,0
;   homeXdirOverride,-1
;   homeYdirOverride,-1
;   homeZdirOverride,-1
;   flipXoverride,1
;   flipYoverride,-1
;   flipZoverride,1
;   toolheadOffsets,0,0|0,0|0,0|0,0|0,0|0,0
;   overrideFirmwareConfiguration,1
;   firmwareTypeOverride,RepRap (Marlin/Repetier/Sprinter)
;   GPXconfigOverride,r2
;   baudRateOverride,115200
;   overridePrinterModels,1
;   printerModelsOverride
;   startingGcode,G28 ; home all axes,M117 Purge extruder,G92 E0 ; reset extruder,G1 Z1.0 F3000 ; move z up little to prevent scratching of surface,G1 X0.1 Y20 Z0.3 F5000.0 ; move to start-line position,G1 X0.1 Y200.0 Z0.3 F1500.0 E15 ; draw 1st line,G1 X0.4 Y200.0 Z0.3 F5000.0 ; move to side a little,G1 X0.4 Y20 Z0.3 F1500.0 E30 ; draw 2nd line,; G1 E27 F3000 ; retract filament 3mm,G92 E0 ; reset extruder,; done purging extruder,G1 Z1.0 F3000 ; move z up little to prevent scratching of surface,M117 Chris Elkins Rocks!
;   layerChangeGcode,
;   retractionGcode,
;   toolChangeGcode,
;   endingGcode,M104 S0; turn off extruder,M140 S0 ; turn off bed,G1 X0 Y300 F1000 ; prepare for part removal,M84 ; disable motors,M106 S0 ; turn off fan,,M300 S294 P200 ;D4: 294,M300 S588 P200 ;D5: 588,M300 S440 P200 ;A4: 440,M300 S392 P200 ;G4: 392,M300 S784 P200 ;G5: 784,M300 S440 P200 ;A4: 440,M300 S740 P200 ;F#5: 740,M300 S440 P200 ;A4: 440
;   exportFileFormat,gcode
;   celebration,0
;   celebrationSong,Star Wars
;   postProcessing,
;   defaultSpeed,3600
;   outlineUnderspeed,0.5
;   solidInfillUnderspeed,0.8
;   supportUnderspeed,0.8
;   rapidXYspeed,7200
;   rapidZspeed,1002
;   minBridgingArea,50
;   bridgingExtraInflation,0
;   bridgingExtrusionMultiplier,1
;   bridgingSpeedMultiplier,1
;   useFixedBridgingAngle,0
;   fixedBridgingAngle,0
;   applyBridgingToPerimeters,1
;   filamentDiameters,1.75|1.75|1.75|1.75|1.75|1.75
;   filamentPricesPerKg,17.99|46|46|46|46|46
;   filamentDensities,1.25|1.25|1.25|1.25|1.25|1.25
;   useMinPrintHeight,0
;   minPrintHeight,0
;   useMaxPrintHeight,0
;   maxPrintHeight,14
;   useDiaphragm,0
;   diaphragmLayerInterval,20
;   robustSlicing,1
;   mergeAllIntoSolid,0
;   onlyRetractWhenCrossingOutline,0
;   retractBetweenLayers,1
;   useRetractionMinTravel,1
;   retractionMinTravel,3
;   retractWhileWiping,1
;   onlyWipeOutlines,1
;   avoidCrossingOutline,1
;   maxMovementDetourFactor,3
;   toolChangeRetractionDistance,12
;   toolChangeExtraRestartDistance,-0.5
;   toolChangeRetractionSpeed,600
;   externalThinWallType,0
;   internalThinWallType,2
;   thinWallAllowedOverlapPercentage,15
;   singleExtrusionMinLength,1
;   singleExtrusionMinPrintingWidthPercentage,50
;   singleExtrusionMaxPrintingWidthPercentage,200
;   singleExtrusionEndpointExtension,0.2
;   horizontalSizeCompensation,0
G90
M82
M106 S0
M140 S60
M190 S60
M104 S210 T0
M109 S210 T0
G28 ; home all axes
M117 Purge extruder
G92 E0 ; reset extruder
G1 Z1.0 F3000 ; move z up little to prevent scratching of surface
G1 X0.1 Y20 Z0.3 F5000.0 ; move to start-line position
G1 X0.1 Y200.0 Z0.3 F1500.0 E15 ; draw 1st line
G1 X0.4 Y200.0 Z0.3 F5000.0 ; move to side a little
G1 X0.4 Y20 Z0.3 F1500.0 E30 ; draw 2nd line
; G1 E27 F3000 ; retract filament 3mm
G92 E0 ; reset extruder
; done purging extruder
G1 Z1.0 F3000 ; move z up little to prevent scratching of surface
M117 Chris Elkins Rocks!
; process Process1
; layer 1, Z = 0.240
T0
G92 E0.0000
G1 E-6.5000 F5100
; feature inner perimeter
; tool H0.240 W0.480
G1 Z0.240 F1002
G1 X96.501 Y130.494 F7200
G1 E-0.1000 F5100
G92 E0.0000
G1 X96.501 Y108.312 E1.0199 F1350
G1 X118.683 Y108.312 E2.0398
G1 X118.683 Y130.494 E3.0597
G1 X96.701 Y130.494 E4.0704
G1 X96.501 Y130.494 F1350
; feature outer perimeter
G1 X96.021 Y130.974 F7200
G92 E0.0000
G1 X96.021 Y107.832 E1.0640 F900
G1 X119.163 Y107.832 E2.1281
G1 X119.163 Y130.974 E3.1921
G1 X96.221 Y130.974 E4.2469
G1 X96.021 Y130.974 F900
G92 E0.0000
G1 X96.021 Y129.827 E-6.5000 F900
G1 X96.021 Y126.974 F900
; feature solid layer
G1 X97.503 Y130.086 F7200
G1 E-0.1000 F5100
G92 E0.0000
G1 X96.909 Y129.493 E0.0386 F1440
G1 X96.909 Y128.814 E0.0698
G1 X98.181 Y130.086 E0.1525
G1 X98.860 Y130.086 E0.1837
G1 X96.909 Y128.135 E0.3106
G1 X96.909 Y127.456 E0.3418
G1 X99.539 Y130.086 E0.5128
G1 X100.218 Y130.086 E0.5440
G1 X96.909 Y126.778 E0.7591
G1 X96.909 Y126.099 E0.7903
G1 X100.897 Y130.086 E1.0496
G1 X101.576 Y130.086 E1.0808
G1 X96.909 Y125.420 E1.3842
G1 X96.909 Y124.741 E1.4154
G1 X102.254 Y130.086 E1.7630
G1 X102.933 Y130.086 E1.7942
G1 X96.909 Y124.062 E2.1859
G1 X96.909 Y123.383 E2.2171
G1 X103.612 Y130.086 E2.6529
G1 X104.291 Y130.086 E2.6841
G1 X96.909 Y122.705 E3.1641
G1 X96.909 Y122.026 E3.1953
G1 X104.970 Y130.086 E3.7194
G1 X105.649 Y130.086 E3.7507
G1 X96.909 Y121.347 E4.3189
G1 X96.909 Y120.668 E4.3501
G1 X106.327 Y130.086 E4.9625
G1 X107.006 Y130.086 E4.9937
G1 X96.909 Y119.989 E5.6503
G1 X96.909 Y119.311 E5.6815
G1 X107.685 Y130.086 E6.3821
G1 X108.364 Y130.086 E6.4133
G1 X96.909 Y118.632 E7.1582
G1 X96.909 Y117.953 E7.1894
G1 X109.043 Y130.086 E7.9783
G1 X109.721 Y130.086 E8.0095
G1 X96.909 Y117.274 E8.8426
G1 X96.909 Y116.595 E8.8738
G1 X110.400 Y130.086 E9.7511
G1 X111.079 Y130.086 E9.7823
G1 X96.909 Y115.916 E10.7036
G1 X96.909 Y115.238 E10.7349
G1 X111.758 Y130.086 E11.7004
G1 X112.437 Y130.086 E11.7316
G1 X96.909 Y114.559 E12.7412
G1 X96.909 Y113.880 E12.7724
G1 X113.116 Y130.086 E13.8262
G1 X113.794 Y130.086 E13.8574
G1 X96.909 Y113.201 E14.9554
G1 X96.909 Y112.522 E14.9866
G1 X114.473 Y130.086 E16.1286
G1 X115.152 Y130.086 E16.1599
G1 X96.909 Y111.843 E17.3461
G1 X96.909 Y111.165 E17.3773
G1 X115.831 Y130.086 E18.6076
G1 X116.510 Y130.086 E18.6388
G1 X96.909 Y110.486 E19.9133
G1 X96.909 Y109.807 E19.9445
G1 X117.189 Y130.086 E21.2632
G1 X117.867 Y130.086 E21.2944
G1 X96.909 Y109.128 E22.6571
G1 X96.909 Y108.720 E22.6759
G1 X97.180 Y108.720 E22.6883
G1 X118.275 Y129.815 E24.0600
G1 X118.275 Y129.136 E24.0912
G1 X97.859 Y108.720 E25.4187
G1 X98.538 Y108.720 E25.4500
G1 X118.275 Y128.457 E26.7333
G1 X118.275 Y127.779 E26.7646
G1 X99.217 Y108.720 E28.0038
G1 X99.896 Y108.720 E28.0350
G1 X118.275 Y127.100 E29.2301
G1 X118.275 Y126.421 E29.2613
G1 X100.575 Y108.720 E30.4123
G1 X101.253 Y108.720 E30.4435
G1 X118.275 Y125.742 E31.5503
G1 X118.275 Y125.063 E31.5815
G1 X101.932 Y108.720 E32.6442
G1 X102.611 Y108.720 E32.6754
G1 X118.275 Y124.385 E33.6940
G1 X118.275 Y123.706 E33.7252
G1 X103.290 Y108.720 E34.6996
G1 X103.969 Y108.720 E34.7308
G1 X118.275 Y123.027 E35.6611
G1 X118.275 Y122.348 E35.6923
G1 X104.647 Y108.720 E36.5784
G1 X105.326 Y108.720 E36.6096
G1 X118.275 Y121.669 E37.4516
G1 X118.275 Y120.990 E37.4828
G1 X106.005 Y108.720 E38.2807
G1 X106.684 Y108.720 E38.3119
G1 X118.275 Y120.312 E39.0656
G1 X118.275 Y119.633 E39.0968
G1 X107.363 Y108.720 E39.8064
G1 X108.042 Y108.720 E39.8376
G1 X118.275 Y118.954 E40.5030
G1 X118.275 Y118.275 E40.5342
G1 X108.720 Y108.720 E41.1555
G1 X109.399 Y108.720 E41.1867
G1 X118.275 Y117.596 E41.7639
G1 X118.275 Y116.918 E41.7951
G1 X110.078 Y108.720 E42.3281
G1 X110.757 Y108.720 E42.3593
G1 X118.275 Y116.239 E42.8482
G1 X118.275 Y115.560 E42.8794
G1 X111.436 Y108.720 E43.3241
G1 X112.115 Y108.720 E43.3553
G1 X118.275 Y114.881 E43.7559
G1 X118.275 Y114.202 E43.7871
G1 X112.793 Y108.720 E44.1436
G1 X113.472 Y108.720 E44.1748
G1 X118.275 Y113.523 E44.4871
G1 X118.275 Y112.845 E44.5183
G1 X114.151 Y108.720 E44.7865
G1 X114.830 Y108.720 E44.8177
G1 X118.275 Y112.166 E45.0417
G1 X118.275 Y111.487 E45.0730
G1 X115.509 Y108.720 E45.2529
G1 X116.187 Y108.720 E45.2841
G1 X118.275 Y110.808 E45.4198
G1 X118.275 Y110.129 E45.4510
G1 X116.866 Y108.720 E45.5426
G1 X117.545 Y108.720 E45.5739
G1 X118.275 Y109.450 E45.6213
G1 X118.275 Y108.899 E45.6467
G1 X118.275 Y108.772 F1440
G1 X118.224 Y108.720
G92 E0.0000
G1 E-6.5000 F5100
; feature inner perimeter
G1 X119.163 Y111.843 F7200
G1 X119.163 Y130.974
G1 X124.293 Y130.974
G1 X124.293 Y128.898
G1 X124.773 Y130.494
G1 E-0.1000 F5100
G92 E0.0000
G1 X124.773 Y108.312 E1.0199 F1350
G1 X146.955 Y108.312 E2.0398
G1 X146.955 Y130.494 E3.0597
G1 X124.973 Y130.494 E4.0704
G1 X124.773 Y130.494 F1350
; feature outer perimeter
G1 X124.293 Y130.974 F7200
G92 E0.0000
G1 X124.293 Y107.832 E1.0640 F900
G1 X147.435 Y107.832 E2.1281
G1 X147.435 Y130.974 E3.1921
G1 X124.493 Y130.974 E4.2469
G1 X124.293 Y130.974 F900
G92 E0.0000
G1 X124.293 Y129.827 E-6.5000 F900
G1 X124.293 Y126.974 F900
; feature solid layer
G1 X125.334 Y130.086 F7200
G1 E-0.1000 F5100
G92 E0.0000
G1 X125.181 Y129.933 E0.0100 F1440
G1 X125.181 Y129.254 E0.0412
G1 X126.013 Y130.086 E0.0953
G1 X126.692 Y130.086 E0.1265
G1 X125.181 Y128.575 E0.2247
G1 X125.181 Y127.896 E0.2559
G1 X127.371 Y130.086 E0.3983
G1 X128.050 Y130.086 E0.4295
G1 X125.181 Y127.218 E0.6160
G1 X125.181 Y126.539 E0.6473
G1 X128.728 Y130.086 E0.8779
G1 X129.407 Y130.086 E0.9091
G1 X125.181 Y125.860 E1.1839
G1 X125.181 Y125.181 E1.2151
G1 X130.086 Y130.086 E1.5341
G1 X130.765 Y130.086 E1.5653
G1 X125.181 Y124.502 E1.9284
G1 X125.181 Y123.824 E1.9596
G1 X131.444 Y130.086 E2.3668
G1 X132.123 Y130.086 E2.3980
G1 X125.181 Y123.145 E2.8494
G1 X125.181 Y122.466 E2.8806
G1 X132.801 Y130.086 E3.3761
G1 X133.480 Y130.086 E3.4073
G1 X125.181 Y121.787 E3.9469
G1 X125.181 Y121.108 E3.9781
G1 X134.159 Y130.086 E4.5619
G1 X134.838 Y130.086 E4.5931
G1 X125.181 Y120.429 E5.2210
G1 X125.181 Y119.751 E5.2522
G1 X135.517 Y130.086 E5.9243
G1 X136.196 Y130.086 E5.9555
G1 X125.181 Y119.072 E6.6717
G1 X125.181 Y118.393 E6.7029
G1 X136.874 Y130.086 E7.4632
G1 X137.553 Y130.086 E7.4945
G1 X125.181 Y117.714 E8.2989
G1 X125.181 Y117.035 E8.3301
G1 X138.232 Y130.086 E9.1788
G1 X138.911 Y130.086 E9.2100
G1 X125.181 Y116.356 E10.1027
G1 X125.181 Y115.678 E10.1339
G1 X139.590 Y130.086 E11.0708
G1 X140.268 Y130.086 E11.1020
G1 X125.181 Y114.999 E12.0831
G1 X125.181 Y114.320 E12.1143
G1 X140.947 Y130.086 E13.1395
G1 X141.626 Y130.086 E13.1707
G1 X125.181 Y113.641 E14.2400
G1 X125.181 Y112.962 E14.2712
G1 X142.305 Y130.086 E15.3846
G1 X142.984 Y130.086 E15.4159
G1 X125.181 Y112.284 E16.5734
G1 X125.181 Y111.605 E16.6047
G1 X143.663 Y130.086 E17.8064
G1 X144.341 Y130.086 E17.8376
G1 X125.181 Y110.926 E19.0835
G1 X125.181 Y110.247 E19.1147
G1 X145.020 Y130.086 E20.4047
G1 X145.699 Y130.086 E20.4359
G1 X125.181 Y109.568 E21.7701
G1 X125.181 Y108.889 E21.8013
G1 X146.378 Y130.086 E23.1796
G1 X146.547 Y130.086 E23.1873
G1 X146.547 Y129.576 E23.2108
G1 X125.691 Y108.720 E24.5669
G1 X126.370 Y108.720 E24.5981
G1 X146.547 Y128.898 E25.9101
G1 X146.547 Y128.219 E25.9413
G1 X127.049 Y108.720 E27.2092
G1 X127.727 Y108.720 E27.2404
G1 X146.547 Y127.540 E28.4641
G1 X146.547 Y126.861 E28.4953
G1 X128.406 Y108.720 E29.6749
G1 X129.085 Y108.720 E29.7061
G1 X146.547 Y126.182 E30.8416
G1 X146.547 Y125.503 E30.8728
G1 X129.764 Y108.720 E31.9641
G1 X130.443 Y108.720 E31.9953
G1 X146.547 Y124.825 E33.0425
G1 X146.547 Y124.146 E33.0737
G1 X131.122 Y108.720 E34.0767
G1 X131.800 Y108.720 E34.1079
G1 X146.547 Y123.467 E35.0668
G1 X146.547 Y122.788 E35.0980
G1 X132.479 Y108.720 E36.0127
G1 X133.158 Y108.720 E36.0439
G1 X146.547 Y122.109 E36.9145
G1 X146.547 Y121.431 E36.9458
G1 X133.837 Y108.720 E37.7722
G1 X134.516 Y108.720 E37.8034
G1 X146.547 Y120.752 E38.5858
G1 X146.547 Y120.073 E38.6170
G1 X135.194 Y108.720 E39.3552
G1 X135.873 Y108.720 E39.3864
G1 X146.547 Y119.394 E40.0804
G1 X146.547 Y118.715 E40.1116
G1 X136.552 Y108.720 E40.7615
G1 X137.231 Y108.720 E40.7927
G1 X146.547 Y118.036 E41.3985
G1 X146.547 Y117.358 E41.4297
G1 X137.910 Y108.720 E41.9913
G1 X138.589 Y108.720 E42.0225
G1 X146.547 Y116.679 E42.5400
G1 X146.547 Y116.000 E42.5712
G1 X139.267 Y108.720 E43.0446
G1 X139.946 Y108.720 E43.0758
G1 X146.547 Y115.321 E43.5050
G1 X146.547 Y114.642 E43.5362
G1 X140.625 Y108.720 E43.9213
G1 X141.304 Y108.720 E43.9525
G1 X146.547 Y113.963 E44.2934
G1 X146.547 Y113.285 E44.3246
G1 X141.983 Y108.720 E44.6214
